svg/furkot/nps/diving.svg

<svg viewBox="0 0 512 512" xmlns="http://www.w3.org/2000/svg"><path d="m112.435 55.654-28.262-55.398-84.173-.256 81.254 83.968zm253.799 240.436c15.36 4.249 31.897-4.557 36.249-20.327 4.199-15.513-4.761-31.846-20.224-36.198l-12.032-3.379-15.616 56.371zm-9.421-63.54-97.28-27.699c-6.4-1.689-12.8 2.202-14.592 8.653l-9.114 32.87c-1.792 6.452 1.69 13.108 8.243 15.053l97.229 27.392z"/><path d="m372.173 325.939c-7.424-7.117-16.64-12.8-27.392-15.769l-117.914-33.332-72.448-129.945c-3.84-6.707-9.933-12.032-17.92-14.234-15.872-4.505-32.358 4.915-36.71 20.992-2.151 7.629-1.127 15.411 2.304 21.965l90.624 160.666s7.424 12.083 26.061 18.278l164.761 46.694 76.391 78.388c2.56 2.662 5.888 4.761 9.83 5.939 11.52 3.328 23.552-3.738 26.931-15.258 2.151-8.141-.409-16.742-6.144-22.016zm87.91 32.461 17.101 22.63 34.816-38.4-29.389-16.537c2.765-20.839-9.984-41.011-30.464-46.848-22.528-6.298-45.926 6.861-52.224 29.645-6.4 22.886 6.81 46.438 29.338 52.787 10.701 3.072 21.606 1.433 30.822-3.277z"/></svg>

<svg xmlns="http://www.w3.org/2000/svg" viewBox="0 0 512 512"><path d="M112.435 55.654L84.173.256 0 0 81.254 83.968zM366.234 296.09C381.594 300.339 398.131 291.533 402.483 275.763 406.682 260.25 397.722 243.917 382.259 239.565L370.227 236.186 354.611 292.557 366.234 296.09zM356.813 232.55L259.533 204.851C253.133 203.162 246.733 207.053 244.941 213.504L235.827 246.374C234.035 252.826 237.517 259.482 244.07 261.427L341.299 288.819 356.813 232.55z"/><path d="M372.173 325.939C364.749 318.822 355.533 313.139 344.781 310.17L226.867 276.838 226.867 276.838 154.419 146.893C150.579 140.186 144.486 134.861 136.499 132.659 120.627 128.154 104.141 137.574 99.789 153.651 97.638 161.28 98.662 169.062 102.093 175.616L192.717 336.282C192.717 336.282 200.141 348.365 218.778 354.56L383.539 401.254 459.93 479.642C462.49 482.304 465.818 484.403 469.76 485.581 481.28 488.909 493.312 481.843 496.691 470.323 498.842 462.182 496.282 453.581 490.547 448.307L372.173 325.939ZM460.083 358.4L477.184 381.03 512 342.63 482.611 326.093C485.376 305.254 472.627 285.082 452.147 279.245 429.619 272.947 406.221 286.106 399.923 308.89 393.523 331.776 406.733 355.328 429.261 361.677 439.962 364.749 450.867 363.11 460.083 358.4Z"/></svg>
